X: 118
T:Racketty Jack's Reel
M:2/4
L:1/16
Z:abc by Bruce Osborne - bosborne@kos.net
K:G
D2GB cBAB|dBcA BGFG|D2GB cBAB|dBcA BGFE|!
D2GB cBAB|dBcA BGFG|D2GB cBAB|dBcA BGG2:|!
|:gdBd gdBd|eaga gfed|cBcd edef|gfge d^def|!
gdBd gdBd|eaga gfed|cBcd edef|(3gfedB G2z2:|!
